X: 1312
T: Mrs Garden of Troup's Strathspey.
C: by Petrie.
%R: strathspey
B: Niel Gow & Sons "Complete Repository" v.1 p.31 #2
Z: 2021 John Chambers <jc:trillian.mit.edu>
M: C
L: 1/8
K: F
% - - - - - - - - - -
% Voice 1 formatted for compactness and proofreading.
V: 1 staves=2
C !segno! |\
F>GFd cFdF | E>CC>F E/F/G/E/ CE |\
TF>GFd cFAf | c>f a/g/f/e/ f2f :| c |\
f>ca>c b>ca>c | A>f b/a/g/f/ egga |
f>ca>c b>ca>c | (b/a/g/)f/ (e/f/g/)e/ Tf2 f (c/d//e//) ||\
f>ca>c b>ca>c | c>f (b/a/g/)f/ eg-gf/e/ |\
dBdf cAcf | Af (a/g/)f/e/ Tf2 fa !segno!|]
% - - - - - - - - - -
% Voice 2 preserves the book's staff layout.
V: 2 clef=bass middle=d
z !segno!| f2F2 A2B2 | c2A2 c2B2 | A2F2 A2F2 | A2c2 F2F :| z | a2f2 e2f2 | a2f2 e2c2 |
a2f2 e2f2 | c'2c'2 f2f2 || a2f2 e2f2 | f2c2 e2c2 | B2b2 a2f2 | f2c2 F2F2 !segno!|]


